!!!!SEGMENT: pl-sa--549-a-ix-29--030_anonim--dumka.krn
!!!cenid: 18xx:484
!!!COM: Anonim
!!!COM-rismID: pe30004985
!!!CDT:
!!!CNT:
!!!OTL: Dumka
!!!PDT:
!!!AGN: Secular; Dumka
!!!SMS-siglum: PL-SA
!!!SMS-shelfmark: 549/A IX 29
!!!SMS-shelfwork: 030 W
!!!SMS-variant:
!!!SMS-altvar:
!!!NIFC-rismSourceID: 1001068918
!!!NIFC-rismChildID: 1001068918
!!!NIFC-islandoraID:
!!!URL-pdf-islandora:
!!!URL-scan: https://bc.bdsandomierz.pl/dlibra/publication/1441/edition/1409/content @EN{Scan in the Sandomierz Diocese Digital Library} @PL{Skany w portalu Cyfrowa Biblioteka Diecezjalna w Sandomierzu}
!!!ONB-nifc: Str. 22, s. 4-5
!!!AIN: 1 empty
!!!key:
**kern	**kern
*part1	*part1
*staff2	*staff1
*Iempty	*Ipiano
*	*I"Piano
*	*I'Pno.
*clefF4	*clefG2
*k[]	*k[]
*a:	*a:
*M2/4	*M2/4
*>[A,A]	*>[A,A]
=1	=1
*>A	*>A
*2\right	*2\right
2C\	8cc\L
.	8ee\
.	8gg\
.	8ee\J
=2	=2
2G\	8.dd\L
.	16cc\Jk
.	8b\L
.	8g\J
=3	=3
4C\	8cc\L
.	8ee\
4E\	8gg\
.	8ee\J
=4	=4
4G\	8.dd\L
.	16ff\Jk
4G#X\	16ee\LL
.	16dd\
.	16cc\
.	16b\JJ
=5	=5
4A\	16a\LL
.	16b\
.	16cc\
.	16b\JJ
4r	16dd\LL
.	16cc\
.	16ff\
.	16ee\JJ
=6	=6
2E\	16dd/LL
.	16cc/
.	16b/
.	16a/JJ
.	8g#X/L
.	8e/J
=7	=7
4A\	16a\LL
.	16b\
.	16cc\
.	16dd\JJ
!!LO:LB:g=original
4E\	8ee\L
.	8g#X\J
=8	=8
2AA/	2a\
==:|!	==:|!
*-	*-
!!!system-decoration: {(s1,s2)}
!!!RDF**kern: > = above
!!!RDF**kern: < = below
!!!RDF**kern: | = vertical stroke
!!!RDF**kern: N = linked
!!!RDF**kern: i = editorial accidental
!!!RDF**kern: l = terminal long
!!!ENC: Anastazja Marusiak
!!!END: 2020-06-17
!!!EED: Wojciech Jakubiak-Danek
!!!EEV: 2022-01-09
!!!YEC: Copyright 2022 Narodowy Instytut Fryderyka Chopina (https://polishscores.org)
!!!YEM: License CC-BY-4.0 (https://creativecommons.org/licenses/by/4.0)
